X: 10
T: Piros alma, nem hittem hogy édes légy
S: Mezőkölpény
M:4/4
L:1/4
K:C 
d/d/ c/c/ d/e/c/d/ | e<c A z |
A/B/c/d/ e/d/c/A/ | A G F z |
A A d c | c/A/ F/G/ | A<F D z |
c/d/e/d/ d/c/ A/G/ | D<D D z |
W: Piros alma, nem hittem hogy édes légy
W: Régi babám nem hittem, hogy csalfa légy
W: Csalfasággal csaltad meg a szívemet,
W: A Jóisten borítsa rád az eget.
W: 
W: Édesanyám ha te tudnád, amit én,
W: Milyen gyöngeszívű lányod vagyok én,
W: Olyan gyöngeszívű lányod vagyok én,
W: Anyám, anyám, meghalok a babámér'.
W:
W: Sárgadinnye, görögdinnye inastól,
W: Haragszik rám egy vénasszony fiastól.
W: Ha haragszik, haragudjon magára,
W: Nem szorultam az ő csámpás fiára
W:
W: Édesanyám ne tiltson a babámtól,
W: Ha megakar menteni a haláltól,
W: Én nem bánom, édesanyám tagadj meg,
W: Mer' a szívem a babaámér' hasad meg.

